X:1
T:Étude op. 30 no 18
T:Étude op. 30 no 18
T:Joachim Andersen
C:Joachim Andersen
L:1/8
Q:1/4=92
M:9/8
K:Ab
V:1 treble nm="Flûte" snm="Fl."
V:1
"^Andante sostenuto"!p!"_dolce" (f/a/=B/a/c/a/) (f/a/B/a/c/a/) (f/a/B/a/c/a/) | %1
 (g/b/=B/b/c/b/) (g/b/B/b/c/b/) (g/b/B/b/c/b/) | (=e/g/=B/g/c/g/) (e/g/B/g/c/g/) (e/g/B/g/c/g/) | %3
 (f/a/=B/a/c/a/) (f/a/B/a/c/a/) (f/a/B/a/c/a/) | %4
"_cresc." (_e/c'/g/c'/a/c'/) (e/c'/g/c'/a/c'/) (e/c'/g/c'/a/c'/) | %5
 (g/e'/=b/e'/c'/e'/) (g/e'/b/e'/c'/e'/) (g/e'/b/e'/c'/e'/) | %6
 (f/=d'/^a/d'/=b/d'/) (f/d'/a/d'/b/d'/) (f/d'/a/d'/b/d'/) | %7
!mf! (=e/d'/=a/d'/_b/d'/) (e/d'/a/d'/b/d'/) (e/c'/^f/c'/g/c'/) | %8
 (f/a/=B/a/c/a/) (f/a/B/a/c/a/) (f/a/B/a/c/a/) | (g/b/=B/b/c/b/) (g/b/B/b/c/b/) (g/b/B/b/c/b/) | %10
 (=e/g/=B/g/c/g/) (e/g/B/g/c/g/) (e/g/B/g/c/g/) | %11
!>(! (f/a/=B/a/c/a/) (f/a/B/a/c/a/) (f/a/B/a/c/a/)!>)! | %12
!pp! (d/f/G/f/A/f/) (d/f/G/f/A/f/) (d/f/G/f/A/f/) | (d/g/=A/g/B/g/) (d/g/A/g/B/g/) (d/g/A/g/B/g/) | %14
 (=e/g/=B/g/c/^f/) (g/b/^d/b/e/=a/) (b/_d'/f/d'/g/c'/) |!p! (f/a/=B/a/c/a/) (A/f/G/f/A/c/) F3 || %16
 (c/e/^F/e/G/e/) (c/e/F/e/G/e/) (=B/=d/F/d/G/d/) | %17
 (c/e/^F/e/G/e/) (c/e/F/e/!<(!G/e/) (c/=f/G/f/A/f/) | %18
 (e/g/=B/g/c/g/) (f/a/^A/a/B/a/) (f/g/A/g/B/g/)!<)! | %19
!>(! (e/g/=B/g/c/g/) (=d/g/^A/g/B/g/) (f/g/^c/g/d/g/)!>)! | %20
!p! (c/e/^F/e/G/e/) (c/e/F/e/G/e/) (=B/=d/F/d/G/d/) | %21
!<(! (c/e/^F/e/G/e/) (c/e/F/e/G/e/) (=d/f/=A/f/B/f/) | %22
 (e/g/=A/g/B/g/) (=d/b/^f/b/g/!<)!b/) (c/=a/^e/a/f/a/) | %23
!>(! (=B/a/=e/a/f/a/ A/f/^c/f/=d/f/ G/d/^A/d/B/d/)!>)! | %24
!p! (c/e/^F/e/G/e/) (c/e/F/e/G/e/) (=B/=d/F/d/G/d/) | %25
!<(! (c/e/^F/e/G/e/) (c/e/F/e/G/e/) (c/f/G/f/A/f/)!<)! | %26
 (e/g/=B/g/c/g/) (f/a/^A/a/B/a/) (f/g/A/g/B/g/) | %27
!>(! (e/g/=B/g/c/g/) (=d/g/^A/g/B/g/) (f/g/^c/g/d/g/)!>)! | %28
!p!!<(! (e/c'/^f/c'/g/c'/) (e/c'/f/c'/g/c'/) (_d/b/^d/b/=e/b/)!<)! | %29
!>(! (c/a/=e/a/f/a/) (B/g/^d/g/e/g/) (A/f/^c/f/=d/f/)!>)! | %30
!p! (G/e/=B/e/c/e/) (G/e/B/e/c/e/) (G/=d/"_dim."^A/d/B/d/) | %31
 (c/g/^d/g/=e/g/)!<(! (c/a/e/a/f/a/) (c/b/^f/b/g/b/)!<)! || %32
!p! (f/a/=B/a/c/a/) (f/a/B/a/c/a/) (f/a/B/a/c/a/) | (g/b/=B/b/c/b/) (g/b/B/b/c/b/) (g/b/B/b/c/b/) | %34
 (=e/g/=B/g/c/g/) (e/g/B/g/c/g/) (e/g/B/g/c/g/) | (f/a/=B/a/c/a/) (f/a/B/a/c/a/) (f/a/B/a/c/a/) | %36
"_cresc." (_e/c'/g/c'/a/c'/) (e/c'/g/c'/a/c'/) (e/c'/g/c'/a/c'/) | %37
 (g/e'/=b/e'/c'/e'/) (g/e'/b/e'/c'/e'/) (g/e'/b/e'/c'/e'/) | %38
 (f/=d'/^a/d'/=b/d'/) (f/d'/a/d'/b/d'/) (f/d'/a/d'/b/d'/) | %39
!mf!!>(! (=e/d'/=a/d'/_b/d'/) (e/d'/a/d'/b/d'/) (e/c'/^f/c'/g/c'/)!>)! | %40
!p! (f/a/=B/a/c/a/) (f/a/B/a/c/a/) (f/a/B/a/c/a/) | (g/b/=B/b/c/b/) (g/b/B/b/c/b/) (g/b/B/b/c/b/) | %42
 (=e/g/=B/g/c/g/) (e/g/B/g/c/g/) (e/g/B/g/c/g/) | %43
!>(! (f/a/=B/a/c/a/) (f/a/B/a/c/a/) (f/a/B/a/c/a/)!>)! | %44
!pp! (d/f/G/f/A/f/) (d/f/G/f/A/f/) (d/f/G/f/A/f/) | (d/g/=A/g/B/g/) (d/g/A/g/B/g/) (d/g/A/g/B/g/) | %46
!<(! (=e/g/=B/g/c/^f/) (g/b/^d/b/e/=a/) (b/d'/f/d'/g/c'/)!<)! | %47
!mf! (e/c'/^g/c'/=a/c'/) (e/c'/g/c'/a/c'/) (=d/=b/=g/b/_a/b/) | %48
!>(! (d/b/^f/b/g/b/) (d/b/f/b/g/b/) (c/=a/=f/a/_g/a/)!>)! | %49
!p! (d/b/=e/b/f/b/) (B/d'/=a/d'/b/d'/) (G/b/^f/b/g/b/) | %50
 (c/a/=e/a/f/a/) (d/a/e/a/f/a/) (A/a/e/a/f/a/) | %51
"_dim." (B/g/=e/g/f/g/) (=B/g/e/g/f/g/) (c/g/^d/g/e/g/) | %52
!pp! (f/a/=B/a/c/a/) (f/a/B/a/c/a/) (=e/g/B/g/c/g/) | %53
 (f/a/=B/a/c/a/) (f/a/B/a/c/a/) (=e/g/B/g/c/g/) | %54
 (f/c'/g/c'/a/c'/) (c/a/=e/a/f/a/) (A/f/=B/f/c/f/) |!pp! F6 z2 z |] %56

